X:1
T:Title
%%score ( 1 2 ) { 3 | 4 }
L:1/8
Q:1/4=93
M:4/4
K:Eb
V:1 treble nm="Grand Piano, Soprano"
V:2 treble 
V:3 bass nm="Choir Pad, LeDroit Park, 87.87 D"
V:4 bass 
V:1
 (3[E-B][E=A][EB] [Ec]2 [EB]2 (3edc | [EB]2 [EG]2 [B,E]>[DF] [EG]2- | [EG][EB] [Ec]>[EB] [DF]4 | %3
w: By~Phoebe~Palmer~Knapp,~1885 * * * * * * *|||
 (3[E-B][E=A][EB] [Ec]2 [EB]2 (3[E-e][Ed][Ec] | [EB]2 [EG]2 [EB]>[Ec] [Gd]2- | %5
w: ||
 [Gd][DG] [_GB]>[G=A] =G4 | [FA]>[=EG] [FA]2 [DF]2 [GB]>[_G=A] | [GB]2 [EG]2 [FB]>[Fc] [Fd]2- | %8
w: |||
 [Fd][Ff] [Fe]>[=Ac] B4 | [Ge]>[GB] [EG]2 [EG]2 [GB]>[EG] | [B,E]2 [CE]2 [B,E]>E [CF]2- | %11
w: |||
 [CF]C [B,D]>[A,F] [B,E]4- | [B,E]4 z4 |] %13
w: ||
V:2
 z4 z2 E2 | x8 | x8 | x8 | x8 | x8 | x8 | x8 | x8 | x8 | x8 | x8 | x8 |] %13
V:3
 (3G,_G,=G, A,2 G,2 (3CB,A, | G,2 B,2 G,>B, B,2- | B,B, A,>B, B,4 | (3G,_G,=G, A,2 G,2 (3CB,A, | %4
 G,2 B,2 B,>G, B,2- | B,B, C>C B,4 | B,>B, B,2 B,2 B,>C | B,2 B,2 B,>=A, B,2- | %8
 B,[K:treble]D =A,>E D4 | B,>[K:bass]B, B,2 B,2 E>B, | G,2 G,2 G,>B, A,2- | A,F, F,>A, G,4- | %12
 G,4 z4 |] %13
V:4
 (3:2:2E,2 E, E,2 E,2 (3:2:2E,2 E, | E,2 E,2 E,>B,, E,2- | E,G, z z/ G,/ z4 | %3
 (3:2:2E,2 E, E,2 E,2 (3:2:2E,2 E, | E,2 E,2 G,>E, D,2- | D,D, D,>D, G,4 | B,,>B,, z2 z2 E,>E, | %7
 E,2 E,2 D,>F, z2 | z F, F,>F, B,4 | E,>E, E,2 E,2 E,>E, | E,2 C,2 G,,>G,, A,,2- | %11
 A,,A,, B,,>B,, E,4- | E,4 z4 |] %13

